Newaita/actions/16/dialog-messages.svg

<svg height="16" viewBox="0 0 16 16" width="16" xmlns="http://www.w3.org/2000/svg"><path d="m7.9375 1.453125c-3.632812 0-6.609375 2.789063-6.609375 6.28125 0 .984375.238281 1.917969.660156 2.746094l-.652343 3.414062c-.042969.238281.046874.480469.234374.632813s.445313.191406.667969.097656l2.871094-1.210938c.859375.386719 1.820313.601563 2.828125.601563 3.632812 0 6.613281-2.792969 6.613281-6.28125 0-3.492187-2.980469-6.28125-6.613281-6.28125zm0 1.316406c2.964844 0 5.296875 2.222657 5.296875 4.964844 0 2.738281-2.332031 4.960937-5.296875 4.960937-.878906 0-1.699219-.195312-2.425781-.542968-.1875-.132813-.429688-.15625-.640625-.066406l-2.011719.847656.433594-2.265625c.007812-.039063.011719-.078125.011719-.117188.050781-.171875.027343-.355469-.0625-.511719-.382813-.6875-.597657-1.46875-.597657-2.304687 0-2.742187 2.328125-4.964844 5.292969-4.964844zm0 0" fill="#424242"/></svg>

<?xml version="1.0" encoding="UTF-8"?>
<svg xmlns="http://www.w3.org/2000/svg" xmlns:xlink="http://www.w3.org/1999/xlink" width="16px" height="16px" viewBox="0 0 16 16" version="1.1">
<g id="surface1">
<path style=" stroke:none;fill-rule:nonzero;fill:rgb(25.882354%,25.882354%,25.882354%);fill-opacity:1;" d="M 7.9375 1.453125 C 4.304688 1.453125 1.328125 4.242188 1.328125 7.734375 C 1.328125 8.71875 1.566406 9.652344 1.988281 10.480469 L 1.335938 13.894531 C 1.292969 14.132812 1.382812 14.375 1.570312 14.527344 C 1.757812 14.679688 2.015625 14.71875 2.238281 14.625 L 5.109375 13.414062 C 5.96875 13.800781 6.929688 14.015625 7.9375 14.015625 C 11.570312 14.015625 14.550781 11.222656 14.550781 7.734375 C 14.550781 4.242188 11.570312 1.453125 7.9375 1.453125 Z M 7.9375 2.769531 C 10.902344 2.769531 13.234375 4.992188 13.234375 7.734375 C 13.234375 10.472656 10.902344 12.695312 7.9375 12.695312 C 7.058594 12.695312 6.238281 12.5 5.511719 12.152344 C 5.324219 12.019531 5.082031 11.996094 4.871094 12.085938 L 2.859375 12.933594 L 3.292969 10.667969 C 3.300781 10.628906 3.304688 10.589844 3.304688 10.550781 C 3.355469 10.378906 3.332031 10.195312 3.242188 10.039062 C 2.859375 9.351562 2.644531 8.570312 2.644531 7.734375 C 2.644531 4.992188 4.972656 2.769531 7.9375 2.769531 Z M 7.9375 2.769531 "/>
</g>
</svg>
